X:1
T:Fra l'altre virtu
T:Fra l'altre virtu
T:Andreas Pevernage
T:Source: Musica divina---Anversa---P.Phalesio & G.Bellero---1583. Editor: André Vierendeels (01/12/13).
C:Andreas Pevernage
%%score [ 1 2 [ 3 4 ] ]
L:1/8
Q:1/4=110
M:2/2
K:F
V:1 treble nm="Canto" snm="C"
V:2 treble nm="Alto" snm="A"
V:3 treble-8 nm="Tenor 1" snm="T 1"
V:4 treble-8 nm="Tenor 2" snm="T 2"
V:1
 z8 | d8- | d8 | c8 | B4 B4 | A4 z2 =B2 | =B2 c4 c2 | B4 A2 d2- | d2 d2 =B2 c2 | A4 =B2 B2 | %10
w: |Fra|_|l'al-|tre vir-|tu con|si gran- d'ar-|do- re, con|_ si gran- d'ar-|do- re, con|
 =B2 c4 c2 | B4 A2 G2 | A4 A4 | z4 d4- | d2 c2 B4 | A4 f4- | f2 e2 d4 | c4 z2 d2- | d2 c2 B4 | %19
w: si gran- d'ar-|do- * *|* re,|se-|* gui- ta-|te, se-|* gui- ta-|te, se|_ gui- ta-|
 A4 B4 | A4 B4 | A2 G2 A4 | B4 d4 | c2 B2 c4 | d8 | z4 d4 | c4 c4- | c2 c2 B4 | A4 z2 A2 | %29
w: * te|ch'A- pol-|lo in- se-|gna, ch'A-|pol- lo'in- se-|gna,|che|col sol|_ tuo mer-|to, col|
 B2 A2 G4 | ^F4 z2 F2 | G2 A2 B4 | A8 | z4 c4 | c4 B2 A2 | B8 | A4 z2 f2- | f2 e4 f2- | f2 d4 e2- | %39
w: tuo fa- vo-|re, col|tuo fa- vo-|re,|si|ve- * *||de piu|_ chiar' ogn'|_ hor, et|
 e2 d4 ^c2 | d4 A4 | c4 d4 | d2 _e4 e2 | d4 c2 =B2- | B2 c2 d4 | B2 G2 BA Bc | d4 d4 | d4 z2 D2 | %48
w: _ piu de-|gna, pe-|ro con|so- a- vi'ac-|cen- t'al vo-|* str'ho- no-|re, can- tiam' _ _ _|_ qua|giu, can-|
 FE FG AG AB | c4 c4 | =B4 z2 G2 | A4 d4 | ^c4 d4 | G4 z2 A2 | =B4 d4 | ^c4 d4 | G4 z2 c2 | %57
w: tiam _ _ _ _ _ _ _|_ qua|giu, e|chi la|su re-|gna, e|chi la|su re-|gna, e|
 e2 g4 g2 | g4 ^f4 | z2 d2 ^c2 d2 | e4 f4 | d3 d d2 d2 | ^c4 c4 | z2 d2 c2 A2 | c4 c4 | %65
w: chi la su|re- gna,|fa che Par-|nas- so'e|Pin- do'e Hez- li-|co- na,|fa che Par-|nas- so'e|
 B3 B B2 A2 | A4 A4 | z4 f4 | e2 d4 d2 | ^c2 d4 d2 | ^c2 d4 c2 | d4 z2 d2 | c2 =B4 B2 | %73
w: Pin- do'e He- li-|co- na,|sem-|pre di BAR-|TO- LA- ME|tri- suo- *|na, sem-|pre di BAR-|
"^b" c2 e4 e2 | d2 c2 d4 | =B8 |] %76
w: TO- LA- ME-|I ri- suo-|na.|
V:2
 z8 | B8- | B8 | A8 | G4 G4 | ^F4 z2 G2- | G2 G2 G2 A2 | G4 ^F2 A2- |"^-natural" A2 B2 G2 G2 | %9
w: |Fra|_|l'al-|tre vir-|tu con|_ si gran- d'ar-|do- re, con|_ si gran- d'ar-|
 ^F4 G2 G2- | G2 G2 G2 A2 | G4 F2 E2 | F4 F4 | D6 E2 | F4 G4 | F4 F4 | D6 E2 | F4 G4 | G8 | %19
w: do- re, con|_ si gran- d'ar-|do- * *|* re,|se- gui-|ta- te|l'ar- te,|se- gui-|ta- te|l'ar-|
 C4 D4- | D2 E2 F4- | F2 D2 F4 | F2 F2 B4 | A2 B4 A2 | B8 | z4 B4 | A4 G4- | G2 A2 G4 | E4 z2 ^F2 | %29
w: te, se-|* gui- ta-|te te l'ar-|te ch'A- pol-|lo'in- se- *|gna,|che|col sol|_ tuo mer-|to, col|
 G2 A2 B4 | A4 z2 A2 | B2 A2 G4 | ^F8 | z4 G4 | A4 G2 G2 | G4 D4 |"^-natural" D2 E2 FG AB | %37
w: tuo fa- vo-|re, col|tuo fa- vo-|re,|si|ve- * de|piu ch'iar|_ ogn' hor _ _ _|
 c4 c2 c2 | B8 | A8 | ^F8 | G4 B4 | B2 B4 B2 | B4 A2 G2- | G2 G2 ^F4 | G8 | G,4 B,A,B,C | %47
w: _ et piu|de-|gna,|pe-|ro con|so- a- vi'ac-|cen- t'al vo-|* str'ho- no-|re,|can- tiam _ _ _|
 DCDE FE FG | A4 F4 | E4 z2 C2 | D4 G4 | ^F2 F2 G2 B2 |"^-natural" A2 A3 G AB | c4 c4 | z2 G2 B4 | %55
w: _ _ _ _ _ _ _ _|* qua|piu, e|chi la|su, e chi la|su re- * * *|* gna,|e chi|
 A4 AG AB | c4 c4- | c2 G2 B4- | B4 A4 | A4 A2 A2 | c4 c4 | B3 B B2 A2 | A4 A4 | z2 A2 A2 ^F2 | %64
w: la su _ _ _|_ re-||* gna,|fa che Par-|nas- so'e|Pin- do'e He- li-|co- na,|fa che Par-|
 G4 A4 | G3 G G2 F2 | E4 E4 | z4 A4 | A2 A4 A2 | A2 F4 B2 | A2 G2 A4 | ^F4 z2 B2 | A2 G4 G2 | %73
w: nas- so'e|Pin- do'e He- li-|co- na,|sem-|pre Ci- Ci-|LI- ER ri-|suo- * *|na, sem-|pre CI- CI-|
 A2 G4 G2 | ^F2 G4 F2 | G8 |] %76
w: LI- ER ri-|suo- * *|na.|
V:3
 g8- | g8 | f8 | f4 f4 | d8 | z4 d4 | d2 e4 f2 | d4 d2 d2 | d2 g4 c2 | d4 d2 d2 | d2 e4 f2 | %11
w: Fra|_|l'al-|tre vir-|tu|con|si gran- d'ar-|do- re, con|si gran- d'ar-|do- re, con|si gran- d'ar-|
 d4 d4 | d6 e2 | f4 g4 | a4 d4 | d6 e2 | f4 g4 | a4 d4 | d6 e2 | f4 g4 | f4 d2 d2 | c2 B2 c4 | %22
w: do- re,|se- gui-|ta- te|l'ar- te,|se- gui-|ta- te|l'ar- te,|se- gui-|ta- te|l'ar- te ch'A-|pol- lo'in- se-|
 d4 f4 | f2 d2 f4 | f8 | z4 f4 | f4 e4- | e2 f2 d4 | ^c2 c2 d2 d2 | d4 d4 | z2 A2 d2 d2 | d8 | d8 | %33
w: gna, ch'A-|pol- lo'in- se-|gna,|che|col sol|_ tuo mer-|to, col tuo fa-|vo- re,|col tuo fa-|vo-|re,|
 z4 e4 | f4 d4 | z4 g4 | ^f4 a4- | a2 g2 a4 | f4 g2 g2- | g2 f2 e4 | d4 z2 d2 | e4 f4 | f2 g4 g2 | %43
w: si|ve- de,|si|ve- de|_ piu chiar'|ogn'- hor et|_ piu de-|gna, pe-|ro con|so- a- vi'ac-|
 f4 f2 d2- | d2 G2 A4 | G4 G4 | BA Bc d2 d2 | G4 z4 | d8 | cB cd ed ef | g4 _e4 | d8 | z4 z2 d2 | %53
w: cen- t'al vo-|* str'ho- no-|re, can|tiam _ _ _ _ qua|giu,|can-|tiam _ _ _ _ _ _ _|_ qua|giu|e|
 e4 a4 | g4 g4 | e4 z2 d2 | e4 a4 | g4 g4- | g4 d4 | z2 f2 e2 ^f2 | g4 a4 | g3 g g2 f2 | e4 e4 | %63
w: chi la|su re-|gna, e|chi la|su re-|* gna,|fa che Par-|nas- so'e|Pin- do'e He- li-|co- na,|
 z2 f2 e2 d2 | e4 f4 | d3 d d2 d2 | ^c4 c4 | z4 d4 | e2 f4 f2 | e2 d4 g2 | e2 d2 e4 | d4 z2 f2- | %72
w: fa che Par-|nas- so'e|Pin- do'e He- li-|co- na,|sem-|pre di BAR|TO- LA- ME|tri- suo- *|na, sem-|
 f2 d2 d3 d | f2 B4 c2 | A2 G2 A4 | G8 |] %76
w: * pre di BAR-|TO- LA- ME-|I ri- suo-|na.|
V:4
 G8- | G8 | B8 | F4 F4 | G8 | z4 G4 | G2 c4 F2 | G4 D4 | z8 | z4 G4 | G2 c4 F2 | G4 D4 | z4 d4- | %13
w: Fra|_|l'al-|tre vir-|tu|con|si gran- d'ar-|do- re,||non|si gran- d'ar-|do- re,|se-|
 d2 c2 B4 | A4 G4 | D4 d4- | d2 c2 B4 | A4 G4- | G2 A2 B2 G2 | A4 G4 | z4 B4 | F2 G2 F4 | B6 B2 | %23
w: * gui- ta-|te l'ar-|te, se-|* gui- ta-|tr l'ar-||* te,|ch'A-|pol- la'in- se-|gna ch'A-|
 F2 G2 F4 | B8 |"^-natural" z4 B4 | F4 c4- | c2 F2 G4 | A4 z2 D2 | G2 ^F2 G4 | %30
w: pol- lo'in- se-|gna,|che|col sol|_ tuo mer-|to, col|tuo fa- vo-|
"^-natural" D4 z2 D2 | G2 ^F2 G4 | D8 | z4 C4 | F4 G4- | G2 A2 B2 c2 | d4 d4 | c4 A4 | B4 G2 G2 | %39
w: re, col|tuo fa- vo-|re,|si|ve- de|_ _ _ _|* piu|chiar' ogn'-|hor et piu|
 A8 | D4 d4 | c4 B4 | B2 _E4 E2 | B4 F2 G2- | G2 _E2 D4 | G8 | z4 G4 | BA Bc d4 | z2 D2 FE FG | %49
w: de-|gna, pe-|ro con|so- a- vi'ac-|cen- t'al vo-|* str'ho- no-|re,|can-|tiam, _ _ _ _|can- tiam _ _ _|
 A4 A4 | G8 | z4 G4 | A4 d4 | c4 F4 | G4 z2 G2 | A4 d4 | c4 AG AB | c4 G4 | z8 | d4 A2 d2 | c4 F4 | %61
w: _ qua|giu|e|chi la|su re-|gna, e|chi la|su re- * * *|* gna,||fa che Par-|nas- so'e|
 G3 G G2 D2 | A4 A4 | z2 d2 A2 d2 | c4 F4 | G3 G G2 D2 | A4 A4 |"^b" z4 D4 |"^b" ^C2 D4 D2 | %69
w: Pon- do'e He- li-|co- na,|fa che Par-|nas- so'e|Pin- do'e He- li-|co- na,|sem-|pre di BAR-|
 A2 B4 G2 | A2 B2 A4 | D4 z2 B,2 | F2 G4 G2 | F2 _E4 C2 | D2 _E2 D4 | G8 |] %76
w: TO- LA- ME-|I tri- suo-|na, sem-|pre di BAR|TO- LA- ME|I ri- suo-|na.|

